public/img/common/icon-x.svg

<svg fill="none" height="42" viewBox="0 0 42 42" width="42" xmlns="http://www.w3.org/2000/svg"><path d="m20.869.501343c-5.0921 0-10.1855.002632-15.27763-.001316-1.09502 0-2.1058.269741-2.99682.906583-1.453 1.03684-2.203195 2.45789-2.205827 4.24867-.005265 4.70792-.001316 9.41582-.001316 14.12502 0 5.4855.005264 10.971-.002632 16.4565-.002633 1.6171.575147 2.9685 1.793875 4.029.816.7105 1.77546 1.1092 2.856 1.1973.29481.0237.59094.029.88575.029 10.0539 0 20.1078-.0158 30.1617.0079 2.3887.0052 4.3695-1.4395 5.0276-3.4921.1671-.5224.2619-1.0921.2632-1.6408.0158-10.2697.0158-20.5408.0092-30.8105-.0013-2.79868-2.2848-5.051305-5.1026-5.053937-5.1369-.005261-10.2737-.001316-15.4092 0zm-14.05758 33.226257c.05264-.0934.06844-.1355.09608-.1671.74097-.9052 1.48327-1.8105 2.22688-2.7144 1.32532-1.6145 2.65202-3.229 3.97602-4.8448 1.8031-2.2 3.5983-4.4052 5.4119-6.5973.2119-.2566.1987-.4198-.0026-.6632-.7239-.8776-1.4293-1.7697-2.14-2.6579-1.5504-1.9395-3.1008-3.8776-4.6499-5.8184-.3725-.4658-.7384-.93685-1.1214-1.42369.2712-.21711.5054-.40526.7647-.61316 2.6902 3.36715 5.3553 6.70265 8.0402 10.06445.6094-.7355 1.1885-1.4316 1.7636-2.1316 2.094-2.5565 4.1866-5.1118 6.2727-7.67363.1474-.18027.2961-.25001.5264-.24606 2.2335.03947 4.467.06842 6.7004.10263.0829 0 .1646.01843.2935.03422-.0763.10394-.121.17236-.1737.23552-.6725.80658-1.3464 1.61312-2.0189 2.41972-2.0045 2.404-4.0076 4.8079-6.0121 7.2105-1.1977 1.4369-2.3927 2.8763-3.5957 4.3079-.1381.1658-.146.2737-.0026.4434.3949.4671.7699.9527 1.1516 1.4316 1.6991 2.129 3.3983 4.2579 5.0974 6.3869.5593.7013 1.1226 1.3986 1.6728 2.1078.0605.079.0974.2737.05.3198-.1882.1868-.4146.3368-.6423.5131-2.723-3.4092-5.4237-6.7894-8.1665-10.2223-.083.1145-.1238.1789-.1711.2368-1.0371 1.2421-2.0769 2.4842-3.114 3.7263-1.6754 2.0066-3.3522 4.0132-5.021 6.0263-.1408.1698-.2882.229-.5041.2277-2.1137-.0066-4.22738-.004-6.34108-.0053-.10529 0-.21058-.0092-.3672-.0171z" fill="#fff"/><path d="m6.81152 33.7274c.15662.0079.26191.0171.3672.0171 2.1137 0 4.22738-.0013 6.34108.0052.2145 0 .362-.0579.5041-.2276 1.6688-2.0118 3.3456-4.0184 5.021-6.0263 1.0371-1.2421 2.0769-2.4842 3.114-3.7263.0487-.0579.0881-.1224.1711-.2369 2.7428 3.4343 5.4435 6.8132 8.1665 10.2224.2277-.1763.4541-.3263.6423-.5132.0461-.046.0105-.2421-.05-.3197-.5502-.7092-1.1135-1.4066-1.6728-2.1079-1.6991-2.1289-3.3983-4.2579-5.0974-6.3868-.3816-.479-.7567-.9632-1.1516-1.4316-.1434-.1697-.1355-.2789.0027-.4434 1.2029-1.4329 2.3979-2.8711 3.5956-4.3079 2.0032-2.404 4.0076-4.8079 6.0121-7.2105.6725-.8066 1.3464-1.61186 2.0189-2.41976.0527-.06315.0987-.13289.1737-.23552-.1289-.01579-.2119-.0329-.2935-.03421-2.2334-.03421-4.4669-.06316-6.7004-.10263-.2303-.00395-.379.06447-.5264.24605-2.0861 2.56187-4.1787 5.11837-6.2727 7.67367-.5738.7013-1.1542 1.3961-1.7636 2.1316-2.6862-3.3619-5.35-6.6974-8.0402-10.06448-.2593.20789-.4935.39473-.7647.61316.383.48684.7502.95657 1.1214 1.42372 1.5491 1.9407 3.0995 3.8802 4.6499 5.8184.7107.8881 1.4161 1.7815 2.14 2.6579.2013.2434.2145.4065.0026.6631-1.8123 2.1921-3.6088 4.3974-5.4119 6.5974-1.324 1.6158-2.6507 3.2302-3.97601 4.8447-.7423.904-1.48459 1.8092-2.22689 2.7145-.02632.0329-.04343.075-.09608.1671zm26.05268-24.38684c-.1026.14342-.1592.23421-.2277.3171-1.0015 1.20264-2.0044 2.40264-3.0073 3.60394-1.4938 1.7895-2.9876 3.5776-4.4814 5.3671-1.3385 1.6053-2.6757 3.2105-4.0142 4.8158-1.324 1.5881-2.652 3.1737-3.976 4.7605-1.1977 1.4355-2.3967 2.8724-3.5891 4.3132-.1395.1697-.2895.2315-.5067.2302-1.2595-.0079-2.5191-.0039-3.77859-.0052-.10398 0-.20927-.0132-.38431-.025.1224-.1606.20268-.2711.28823-.3764 1.64907-2.0144 3.30087-4.0276 4.94997-6.042 1.6004-1.9553 3.1995-3.9119 4.8012-5.8671 1.5188-1.854 3.0389-3.7053 4.5578-5.5579 1.4701-1.7935 2.9415-3.5856 4.4063-5.38424.1448-.17632.2975-.25527.5291-.25 1.3464.03158 2.6928.04737 4.0405.07105.1066.00132.2132.01448.3909.02632z" fill="#003"/><path d="m32.8644 9.34058c-.1777-.01316-.2843-.025-.3909-.02632-1.3464-.02368-2.6941-.03947-4.0405-.07105-.2329-.00526-.3856.07237-.5291.25-1.4648 1.79739-2.9362 3.58949-4.4064 5.38419-1.5188 1.8526-3.0389 3.7053-4.5577 5.5579-1.6017 1.9553-3.1995 3.9118-4.8012 5.8671-1.6491 2.0145-3.3009 4.0276-4.94998 6.0421-.08686.1053-.16583.2158-.28823.3763.17505.0119.27902.0237.38431.025 1.2595.0013 2.5191-.0026 3.7786.0053.2158.0013.3659-.0605.5067-.2303 1.1924-1.4421 2.3901-2.8776 3.5891-4.3131 1.324-1.5882 2.652-3.1737 3.976-4.7606 1.3385-1.6039 2.6757-3.2105 4.0142-4.8157 1.4925-1.7895 2.9876-3.579 4.4814-5.3671 1.0029-1.2014 2.0058-2.4014 3.0073-3.60399.0685-.08289.1264-.17368.2277-.3171z" fill="#fff"/></svg>

<svg width="42" height="42" viewBox="0 0 42 42" fill="none" xmlns="http://www.w3.org/2000/svg">
<path d="M20.869 0.501343C15.7769 0.501343 10.6835 0.503975 5.59137 0.500027C4.49635 0.500027 3.48557 0.769768 2.59455 1.40661C1.14155 2.44345 0.391355 3.8645 0.388723 5.65528C0.383458 10.3632 0.387407 15.0711 0.387407 19.7803C0.387407 25.2658 0.392671 30.7513 0.384775 36.2368C0.382142 37.8539 0.959922 39.2053 2.17865 40.2658C2.99465 40.9763 3.95411 41.375 5.03465 41.4631C5.32946 41.4868 5.62559 41.4921 5.9204 41.4921C15.9743 41.4921 26.0282 41.4763 36.0821 41.5C38.4708 41.5052 40.4516 40.0605 41.1097 38.0079C41.2768 37.4855 41.3716 36.9158 41.3729 36.3671C41.3887 26.0974 41.3887 15.8263 41.3821 5.5566C41.3808 2.75792 39.0973 0.505295 36.2795 0.502663C31.1426 0.497402 26.0058 0.501347 20.8703 0.502663L20.869 0.501343ZM6.81142 33.7276C6.86406 33.6342 6.87986 33.5921 6.9075 33.5605C7.64847 32.6553 8.39077 31.75 9.13438 30.8461C10.4597 29.2316 11.7864 27.6171 13.1104 26.0013C14.9135 23.8013 16.7087 21.5961 18.5223 19.404C18.7342 19.1474 18.721 18.9842 18.5197 18.7408C17.7958 17.8632 17.0904 16.9711 16.3797 16.0829C14.8293 14.1434 13.2789 12.2053 11.7298 10.2645C11.3573 9.7987 10.9914 9.32765 10.6084 8.84081C10.8796 8.6237 11.1138 8.43555 11.3731 8.22765C14.0633 11.5948 16.7284 14.9303 19.4133 18.2921C20.0227 17.5566 20.6018 16.8605 21.1769 16.1605C23.2709 13.604 25.3635 11.0487 27.4496 8.48687C27.597 8.3066 27.7457 8.23686 27.976 8.24081C30.2095 8.28028 32.443 8.30923 34.6764 8.34344C34.7593 8.34344 34.841 8.36187 34.9699 8.37766C34.8936 8.4816 34.8489 8.55002 34.7962 8.61318C34.1237 9.41976 33.4498 10.2263 32.7773 11.0329C30.7728 13.4369 28.7697 15.8408 26.7652 18.2434C25.5675 19.6803 24.3725 21.1197 23.1695 22.5513C23.0314 22.7171 23.0235 22.825 23.1669 22.9947C23.5618 23.4618 23.9368 23.9474 24.3185 24.4263C26.0176 26.5553 27.7168 28.6842 29.4159 30.8132C29.9752 31.5145 30.5385 32.2118 31.0887 32.921C31.1492 33 31.1861 33.1947 31.1387 33.2408C30.9505 33.4276 30.7241 33.5776 30.4964 33.7539C27.7734 30.3447 25.0727 26.9645 22.3299 23.5316C22.2469 23.6461 22.2061 23.7105 22.1588 23.7684C21.1217 25.0105 20.0819 26.2526 19.0448 27.4947C17.3694 29.5013 15.6926 31.5079 14.0238 33.521C13.883 33.6908 13.7356 33.75 13.5197 33.7487C11.406 33.7421 9.29232 33.7447 7.17862 33.7434C7.07333 33.7434 6.96804 33.7342 6.81142 33.7263V33.7276Z" fill="white"/>
<path d="M6.81152 33.7274C6.96814 33.7353 7.07343 33.7445 7.17872 33.7445C9.29242 33.7445 11.4061 33.7432 13.5198 33.7497C13.7343 33.7497 13.8818 33.6918 14.0239 33.5221C15.6927 31.5103 17.3695 29.5037 19.0449 27.4958C20.082 26.2537 21.1218 25.0116 22.1589 23.7695C22.2076 23.7116 22.247 23.6471 22.33 23.5326C25.0728 26.9669 27.7735 30.3458 30.4965 33.755C30.7242 33.5787 30.9506 33.4287 31.1388 33.2418C31.1849 33.1958 31.1493 32.9997 31.0888 32.9221C30.5386 32.2129 29.9753 31.5155 29.416 30.8142C27.7169 28.6853 26.0177 26.5563 24.3186 24.4274C23.937 23.9484 23.5619 23.4642 23.167 22.9958C23.0236 22.8261 23.0315 22.7169 23.1697 22.5524C24.3726 21.1195 25.5676 19.6813 26.7653 18.2445C28.7685 15.8405 30.7729 13.4366 32.7774 11.034C33.4499 10.2274 34.1238 9.42214 34.7963 8.61424C34.849 8.55109 34.895 8.48135 34.97 8.37872C34.8411 8.36293 34.7581 8.34582 34.6765 8.34451C32.4431 8.3103 30.2096 8.28135 27.9761 8.24188C27.7458 8.23793 27.5971 8.30635 27.4497 8.48793C25.3636 11.0498 23.271 13.6063 21.177 16.1616C20.6032 16.8629 20.0228 17.5577 19.4134 18.2932C16.7272 14.9313 14.0634 11.5958 11.3732 8.22872C11.1139 8.43661 10.8797 8.62345 10.6085 8.84188C10.9915 9.32872 11.3587 9.79845 11.7299 10.2656C13.279 12.2063 14.8294 14.1458 16.3798 16.084C17.0905 16.9721 17.7959 17.8655 18.5198 18.7419C18.7211 18.9853 18.7343 19.1484 18.5224 19.405C16.7101 21.5971 14.9136 23.8024 13.1105 26.0024C11.7865 27.6182 10.4598 29.2326 9.13449 30.8471C8.39219 31.7511 7.6499 32.6563 6.9076 33.5616C6.88128 33.5945 6.86417 33.6366 6.81152 33.7287V33.7274ZM32.8642 9.34056C32.7616 9.48398 32.705 9.57477 32.6365 9.65766C31.635 10.8603 30.6321 12.0603 29.6292 13.2616C28.1354 15.0511 26.6416 16.8392 25.1478 18.6287C23.8093 20.234 22.4721 21.8392 21.1336 23.4445C19.8096 25.0326 18.4816 26.6182 17.1576 28.205C15.9599 29.6405 14.7609 31.0774 13.5685 32.5182C13.429 32.6879 13.279 32.7497 13.0618 32.7484C11.8023 32.7405 10.5427 32.7445 9.28321 32.7432C9.17923 32.7432 9.07394 32.73 8.8989 32.7182C9.0213 32.5576 9.10158 32.4471 9.18713 32.3418C10.8362 30.3274 12.488 28.3142 14.1371 26.2998C15.7375 24.3445 17.3366 22.3879 18.9383 20.4327C20.4571 18.5787 21.9772 16.7274 23.4961 14.8748C24.9662 13.0813 26.4376 11.2892 27.9024 9.49056C28.0472 9.31424 28.1999 9.23529 28.4315 9.24056C29.7779 9.27214 31.1243 9.28793 32.472 9.31161C32.5786 9.31293 32.6852 9.32609 32.8629 9.33793L32.8642 9.34056Z" fill="#000033"/>
<path d="M32.8644 9.34058C32.6867 9.32742 32.5801 9.31558 32.4735 9.31426C31.1271 9.29058 29.7794 9.27479 28.433 9.24321C28.2001 9.23795 28.0474 9.31558 27.9039 9.49321C26.4391 11.2906 24.9677 13.0827 23.4975 14.8774C21.9787 16.73 20.4586 18.5827 18.9398 20.4353C17.3381 22.3906 15.7403 24.3471 14.1386 26.3024C12.4895 28.3169 10.8377 30.33 9.18862 32.3445C9.10176 32.4498 9.02279 32.5603 8.90039 32.7208C9.07544 32.7327 9.17941 32.7445 9.2847 32.7458C10.5442 32.7471 11.8038 32.7432 13.0633 32.7511C13.2791 32.7524 13.4292 32.6906 13.57 32.5208C14.7624 31.0787 15.9601 29.6432 17.1591 28.2077C18.4831 26.6195 19.8111 25.034 21.1351 23.4471C22.4736 21.8432 23.8108 20.2366 25.1493 18.6314C26.6418 16.8419 28.1369 15.0524 29.6307 13.2643C30.6336 12.0629 31.6365 10.8629 32.638 9.66031C32.7065 9.57742 32.7644 9.48663 32.8657 9.34321L32.8644 9.34058Z" fill="white"/>
</svg>
